build/img/icon-tow-truck.svg

<svg width="60" height="40" viewBox="0 0 60 40" fill="none" xmlns="http://www.w3.org/2000/svg">
<g opacity="0.9">
<path d="M60 20.5908L56.3745 18.2185L51.2475 9.68935L38.6644 9.70093L15.4907 0.0975331C15.021 -0.0967652 14.4773 0.00441513 14.1156 0.354856L11.6162 2.77683C11.6153 2.77683 11.6153 2.77774 11.6143 2.77865C11.5896 2.80261 11.5667 2.82748 11.5447 2.85314C11.5392 2.85939 11.5337 2.86552 11.5282 2.87176C11.5062 2.89754 11.4861 2.92411 11.4669 2.9516C11.4633 2.95693 11.4587 2.96318 11.455 2.96931C11.4394 2.99236 11.4238 3.01632 11.4101 3.04028C11.4055 3.04823 11.4009 3.0563 11.3964 3.06424C11.3817 3.09173 11.368 3.11921 11.3551 3.1476C11.3496 3.15827 11.345 3.16895 11.3414 3.17951C11.3294 3.20699 11.3185 3.23538 11.3094 3.26286C11.3067 3.27262 11.3039 3.28239 11.3012 3.29216C11.293 3.31793 11.2856 3.34451 11.2801 3.37108C11.2774 3.37994 11.2755 3.3897 11.2737 3.39947C11.2664 3.43138 11.2617 3.46511 11.2581 3.49792C11.2571 3.50587 11.2562 3.51394 11.2554 3.52279C11.2517 3.55822 11.2499 3.59377 11.2499 3.63011C11.2499 3.63101 11.2499 3.63192 11.2499 3.63363V10.9003C11.2499 11.5693 11.8092 12.1122 12.4996 12.1122C13.1898 12.1122 13.7493 11.5693 13.7493 10.9003V5.54186L26.5658 11.3865L32.4993 23.2895V26.6464H21.0451H12.4977H3.74996H1.24971C0.559347 26.6464 0 27.1894 0 27.8583C0 28.5273 0.559347 29.0702 1.24971 29.0702H2.50024V33.9444C2.50024 34.6134 3.05959 35.1562 3.74996 35.1562H7.62355C8.20223 37.9205 10.7244 40 13.7475 40C16.7926 40 19.3276 37.8885 19.8834 35.0958H37.4962H39.9975H42.6122C43.1652 37.8885 45.7011 40 48.7461 40C51.7912 40 54.3273 37.8885 54.8821 35.0958H59.9742L60 20.5908ZM53.4521 18.168H45.0001V12.1176L49.812 12.1131L53.4521 18.168ZM42.4988 12.1203V18.168H40.0085L40.0121 12.122L42.4988 12.1203ZM30.1593 13.0251L32.4994 14.0916V17.7201L30.1593 13.0251ZM34.2809 12.2276L14.6411 3.27092L15.2857 2.64726L37.4963 11.8515V26.6466H34.9987V13.3232C34.9987 12.8539 34.7204 12.4271 34.2809 12.2276ZM7.62355 32.7325H4.99967V29.0702H10.0396C8.8183 29.9433 7.93668 31.2385 7.62355 32.7325ZM13.7475 37.5781C11.6803 37.5781 9.99758 35.9476 9.99758 33.9444C9.99758 31.9411 11.6803 30.3105 13.7475 30.3105C15.8157 30.3105 17.4976 31.9411 17.4976 33.9444C17.4975 35.9476 15.8157 37.5781 13.7475 37.5781ZM19.8586 32.6722C19.5345 31.203 18.6612 29.9326 17.4554 29.0702H21.0452H33.75H37.4963V32.6722H19.8586ZM48.7463 37.5781C46.679 37.5781 44.9964 35.9476 44.9964 33.9444C44.9964 31.9411 46.679 30.3105 48.7463 30.3105C50.8154 30.3105 52.4963 31.9411 52.4963 33.9444C52.4963 35.9476 50.8154 37.5781 48.7463 37.5781ZM54.8584 32.6722C54.2542 29.9398 51.7493 27.8885 48.7463 27.8885C45.7453 27.8885 43.2386 29.9396 42.6361 32.6722H39.9975L40.0066 20.5908H55.5321L57.4986 21.8772L57.4913 25.4046H56.2482C55.5578 25.4046 54.9975 25.9475 54.9975 26.6182C54.9975 27.2853 55.5578 27.8283 56.2482 27.8283H57.4877L57.4785 32.6722H54.8584Z" fill="white"/>
<path d="M48.7461 32.7325C48.0558 32.7325 47.4974 33.2755 47.4974 33.9444C47.4974 34.6134 48.056 35.1562 48.7461 35.1562C49.4365 35.1562 49.9967 34.6134 49.9967 33.9444C49.9967 33.2755 49.4363 32.7325 48.7461 32.7325Z" fill="white"/>
<path d="M13.7474 32.7325C13.0571 32.7325 12.4977 33.2755 12.4977 33.9444C12.4977 34.6134 13.057 35.1562 13.7474 35.1562C14.4378 35.1562 14.9971 34.6134 14.9971 33.9444C14.9971 33.2755 14.4378 32.7325 13.7474 32.7325Z" fill="white"/>
<path d="M6.26132 19.4046C6.25769 19.5625 6.25769 20.9722 7.30501 22.0094C7.76826 22.4671 8.61144 23.0137 9.99944 23.0137C11.3764 23.0137 12.2168 22.4672 12.6792 22.0094C13.71 20.9909 13.7403 19.6016 13.7385 19.3727V14.535C13.7385 13.866 13.1791 13.324 12.4888 13.324C11.7984 13.324 11.2391 13.866 11.2391 14.535L11.2381 19.3797C11.2381 19.3957 11.2381 19.3895 11.2381 19.3992C11.2363 19.5128 11.1988 19.8375 11.0496 20.1055C10.9159 20.3459 10.6861 20.5916 9.99956 20.5916C9.30368 20.5916 9.07118 20.3405 8.94579 20.1214C8.7966 19.8596 8.7618 19.5412 8.76086 19.44V19.456H8.75699C8.75887 19.4311 8.76063 19.4055 8.76063 19.3797C8.76063 18.7107 8.20128 18.1687 7.51091 18.1687C6.82067 18.1687 6.2612 18.7107 6.2612 19.3797C6.2612 19.3886 6.26214 19.3965 6.26214 19.4046H6.26132Z" fill="white"/>
</g>
</svg>

<svg width="60" height="40" fill="none" xmlns="http://www.w3.org/2000/svg"><g opacity=".9" fill="#fff"><path d="M60 20.59l-3.626-2.372-5.127-8.529-12.583.012L15.491.098a1.279 1.279 0 00-1.375.257l-2.5 2.422-.002.002a1.106 1.106 0 00-.07.074l-.016.019a1.036 1.036 0 00-.061.08l-.012.017a1.124 1.124 0 00-.146.294l-.008.03a.79.79 0 00-.027.106.873.873 0 00-.019.124 1.03 1.03 0 00-.005.107v7.27c0 .67.56 1.212 1.25 1.212s1.25-.543 1.25-1.212V5.542l12.816 5.845 5.933 11.902v3.357H1.25c-.69 0-1.25.543-1.25 1.212 0 .67.56 1.212 1.25 1.212H2.5v4.874c0 .67.56 1.212 1.25 1.212h3.874C8.202 37.92 10.724 40 13.748 40c3.045 0 5.58-2.111 6.135-4.904h22.729c.553 2.793 3.09 4.904 6.134 4.904 3.045 0 5.581-2.111 6.136-4.904h5.092L60 20.59zm-6.548-2.422H45v-6.05l4.812-.005 3.64 6.055zM42.5 12.12v6.048h-2.49l.003-6.046 2.487-.002zm-12.34.905l2.34 1.067v3.628l-2.34-4.695zm4.122-.797L14.64 3.27l.645-.624 22.21 9.204v14.796H35V13.323c0-.47-.279-.896-.718-1.095zM7.624 32.733H5V29.07h5.04a6.04 6.04 0 00-2.416 3.663zm6.124 4.845c-2.068 0-3.75-1.63-3.75-3.634 0-2.003 1.682-3.634 3.75-3.634s3.75 1.631 3.75 3.634c0 2.004-1.682 3.634-3.75 3.634zm6.11-4.906a6.04 6.04 0 00-2.403-3.602h20.041v3.602H19.86zm28.888 4.906c-2.067 0-3.75-1.63-3.75-3.634 0-2.003 1.683-3.634 3.75-3.634 2.07 0 3.75 1.631 3.75 3.634 0 2.004-1.68 3.634-3.75 3.634zm6.112-4.906c-.604-2.732-3.109-4.783-6.112-4.783-3 0-5.507 2.05-6.11 4.783h-2.639l.01-12.081h15.525l1.967 1.286-.008 3.528h-1.243c-.69 0-1.25.543-1.25 1.213 0 .667.56 1.21 1.25 1.21h1.24l-.01 4.844h-2.62z"/><path d="M48.746 32.733c-.69 0-1.249.543-1.249 1.211 0 .67.559 1.212 1.25 1.212.69 0 1.25-.543 1.25-1.212 0-.669-.56-1.212-1.25-1.212zm-34.999 0c-.69 0-1.25.543-1.25 1.211 0 .67.56 1.212 1.25 1.212s1.25-.543 1.25-1.212c0-.669-.56-1.212-1.25-1.212zM6.261 19.405c-.003.157-.003 1.567 1.044 2.604.463.458 1.306 1.005 2.694 1.005 1.377 0 2.218-.547 2.68-1.005 1.031-1.018 1.061-2.407 1.06-2.636v-4.838c0-.669-.56-1.211-1.25-1.211s-1.25.542-1.25 1.211V19.4c-.003.113-.04.438-.19.706-.133.24-.363.486-1.05.486-.695 0-.928-.252-1.053-.47a1.596 1.596 0 01-.185-.682v.016h-.004a.942.942 0 00.004-.076c0-.67-.56-1.211-1.25-1.211s-1.25.542-1.25 1.21l.001.026z"/></g></svg>
